src/assets/img/providers/pragmatic.svg

<svg width="74" height="34" viewBox="0 0 74 34" fill="none" xmlns="http://www.w3.org/2000/svg">
<path fill-rule="evenodd" clip-rule="evenodd" d="M62.0403 10.2864C59.708 10.2864 57.428 10.9818 55.4888 12.2847C53.5495 13.5875 52.038 15.4393 51.1455 17.6058C50.253 19.7724 50.0194 22.1564 50.4744 24.4564C50.9295 26.7564 52.0526 28.869 53.7018 30.5272C55.351 32.1854 57.4522 33.3147 59.7397 33.7722C62.0272 34.2297 64.3983 33.9949 66.5531 33.0975C68.7079 32.2 70.5496 30.6803 71.8454 28.7305C73.1412 26.7807 73.8328 24.4883 73.8328 22.1432C73.8328 18.9986 72.5904 15.9828 70.3788 13.7592C68.1673 11.5356 65.1679 10.2864 62.0403 10.2864ZM62.0403 32.7574C59.9529 32.7577 57.9122 32.1357 56.1764 30.9699C54.4406 29.8042 53.0876 28.147 52.2886 26.2081C51.4895 24.2692 51.2802 22.1355 51.6872 20.077C52.0942 18.0185 53.0993 16.1275 54.5751 14.6433C56.051 13.1591 57.9315 12.1483 59.9788 11.7387C62.0261 11.3291 64.1482 11.5391 66.0768 12.3422C68.0053 13.1453 69.6537 14.5054 70.8135 16.2505C71.9732 17.9955 72.5922 20.0472 72.5922 22.146C72.5922 24.96 71.4806 27.6588 69.5018 29.6487C67.523 31.6387 64.839 32.7569 62.0403 32.7574ZM61.6847 2.00912C58.8851 4.1368 59.3717 7.39975 59.3717 7.39975C59.3717 7.39975 57.6121 2.80735 55.327 0C55.0187 3.61398 56.145 8.40244 56.145 8.40244C56.145 8.40244 54.7141 5.43358 51.208 5.26739C54.1162 6.94788 55.2443 9.97556 55.5025 10.7878C57.2355 9.71218 59.2175 9.10918 61.2529 9.03822C61.0236 8.282 60.2083 5.09561 61.6847 2.00912ZM63.5877 13.248C59.9274 13.4768 61.5709 18.2699 65.6175 18.0169C69.5759 17.7695 67.4876 13.0044 63.5877 13.248ZM1.19445 25.7865V23.305H2.33284C3.04719 23.305 3.59348 23.1317 3.97171 22.785C4.34993 22.4383 4.53905 21.9628 4.53905 21.3585C4.53657 20.7491 4.35086 20.2693 3.98192 19.9188C3.61298 19.5684 3.06205 19.3932 2.32912 19.3932H0.16748V25.7865H1.19445ZM3.18895 20.5294C3.39013 20.7199 3.49073 20.9962 3.49073 21.3585C3.49011 22.0948 3.067 22.4629 2.22141 22.4629H1.19445V20.2447H2.22141C2.66525 20.244 2.98777 20.339 3.18895 20.5294ZM7.19281 23.2331L8.77783 25.7865H9.94036L8.26899 23.1874C8.79455 23.1003 9.19691 22.8952 9.47609 22.5721C9.75527 22.2491 9.89487 21.8386 9.89487 21.3407C9.89548 20.7544 9.70792 20.2833 9.33217 19.9272C8.95642 19.5712 8.40549 19.3932 7.67937 19.3932H5.43602V25.7865H6.46298V23.2331H7.19281ZM7.5958 22.4993H6.46298V20.2811H7.5958C8.02293 20.2811 8.33585 20.3791 8.53734 20.5752C8.73852 20.7718 8.83912 21.0451 8.83912 21.3949C8.83973 22.1312 8.4253 22.4993 7.5958 22.4993ZM11.9302 24.4011H14.6146L15.1003 25.7865H16.1997L13.8672 19.4931H12.687L10.3452 25.7865H11.4437L11.9302 24.4011ZM13.272 20.6172L14.3259 23.6047H12.2181L13.272 20.6172ZM22.3874 21.4313C22.2461 20.8174 21.8915 20.2745 21.3874 19.9002C20.8835 19.5261 20.253 19.3391 19.496 19.3391C18.9241 19.3272 18.3596 19.4693 17.8608 19.7508C17.3943 20.0212 17.0147 20.4203 16.767 20.901C16.5122 21.4271 16.3798 22.0047 16.3798 22.5899C16.3798 23.1751 16.5122 23.7526 16.767 24.2788C17.0158 24.7614 17.397 25.1622 17.8655 25.4336C18.3649 25.718 18.9314 25.8619 19.5053 25.85C20.0168 25.8595 20.5228 25.7414 20.9779 25.5065C21.3927 25.2898 21.7482 24.974 22.0132 24.5869C22.2745 24.2033 22.4454 23.7649 22.5128 23.305V22.3182H19.3158V23.0791H21.6511C21.5725 23.6529 21.3444 24.1042 20.9668 24.4328C20.5916 24.7636 20.1073 24.942 19.6083 24.9332C19.2109 24.9405 18.8183 24.844 18.469 24.6531C18.1415 24.4686 17.8766 24.1896 17.7085 23.8521C17.519 23.4603 17.4263 23.0282 17.4383 22.5927C17.4262 22.1716 17.5157 21.7539 17.6992 21.3753C17.8643 21.0441 18.1205 20.7677 18.4374 20.5789C18.7614 20.3895 19.1306 20.2927 19.5053 20.2988C19.9008 20.2886 20.2906 20.3958 20.626 20.6069C20.9337 20.8026 21.1719 21.0912 21.3066 21.4313H22.3874ZM29.7638 25.7865V19.4931H28.5204L26.4851 24.5187L24.4135 19.4931H23.1711V25.7865H24.1972V21.069L26.0171 25.7865H26.9178L28.7275 21.069V25.7865H29.7638ZM32.1093 24.4011H34.789L35.2756 25.7865H36.375L34.0415 19.4931H32.8623L30.5205 25.7865H31.6227L32.1093 24.4011ZM33.4473 20.6172L34.5012 23.6047H32.3934L33.4473 20.6172ZM40.7697 20.226V19.3932H36.1948V20.226H37.9591V25.7865H38.9953V20.226H40.7697ZM41.3194 25.7865H42.3455V19.3932H41.3194V25.7865ZM49.2 21.5489C49.0447 20.9049 48.6764 20.3331 48.1554 19.9272C47.6385 19.5289 46.99 19.3294 46.2101 19.3288C45.6507 19.3181 45.0992 19.4621 44.6158 19.7452C44.1565 20.0197 43.7847 20.4204 43.5442 20.9001C43.2948 21.4278 43.1653 22.0047 43.1653 22.5889C43.1653 23.1732 43.2948 23.7501 43.5442 24.2778C43.7839 24.7569 44.1559 25.1563 44.6158 25.428C45.1 25.7087 45.6512 25.8513 46.2101 25.8407C46.9907 25.8407 47.6391 25.6428 48.1554 25.2469C48.677 24.8441 49.0456 24.2737 49.2 23.6309H48.1099C47.9687 24.0003 47.719 24.3178 47.3939 24.5411C47.0373 24.7757 46.6174 24.894 46.1915 24.88C45.8341 24.8858 45.4826 24.7886 45.1785 24.5999C44.8741 24.4041 44.6305 24.1262 44.4755 23.798C44.3066 23.4159 44.2193 23.0024 44.2193 22.5843C44.2193 22.1661 44.3066 21.7527 44.4755 21.3706C44.6308 21.0428 44.8743 20.7653 45.1785 20.5696C45.4826 20.3809 45.8342 20.2837 46.1915 20.2895C46.6175 20.2757 47.0374 20.3944 47.3939 20.6293C47.7207 20.8548 47.9707 21.1758 48.1099 21.5489H49.2ZM54.0442 25.7865V23.305H55.1835C55.8978 23.305 56.4441 23.1317 56.8223 22.785C57.2006 22.4383 57.3897 21.9628 57.3897 21.3585C57.3884 20.7491 57.2027 20.2693 56.8326 19.9188C56.4624 19.5684 55.9114 19.3932 55.1798 19.3932H53.0181V25.7865H54.0442ZM56.0424 20.5294C56.2436 20.7199 56.3441 20.9962 56.3441 21.3585C56.3441 22.0948 55.9198 22.4629 55.0711 22.4629H54.0442V20.2447H55.0739C55.5184 20.244 55.8412 20.339 56.0424 20.5294ZM61.349 24.9808H59.1511V19.3932H58.1242V25.7865H61.349V24.9808ZM62.8801 25.7865L63.3667 24.4011H66.0502L66.5367 25.7865H67.6361L65.3027 19.4931H64.1235L61.7807 25.7865H62.8801ZM64.7084 20.6172L65.7623 23.6047H63.6545L64.7084 20.6172ZM69.6418 23.4591L71.7579 19.3932H70.5907L69.132 22.3546L67.6723 19.3932H66.4829L68.6083 23.4591V25.7865H69.6418V23.4591Z" fill="#919EAB"/>
</svg>

<svg xmlns="http://www.w3.org/2000/svg" width="74" height="34" fill="none"><path fill="#919EAB" fill-rule="evenodd" d="M62.04 10.286c-2.332 0-4.612.696-6.551 1.999a11.842 11.842 0 0 0-4.343 5.32 11.918 11.918 0 0 0-.672 6.851 11.877 11.877 0 0 0 3.228 6.071 11.773 11.773 0 0 0 6.038 3.245c2.287.458 4.658.223 6.813-.675a11.808 11.808 0 0 0 5.292-4.367 11.902 11.902 0 0 0 1.988-6.587 11.89 11.89 0 0 0-3.454-8.384 11.76 11.76 0 0 0-8.339-3.473Zm0 22.471c-2.087 0-4.128-.621-5.864-1.787a10.598 10.598 0 0 1-3.887-4.762 10.665 10.665 0 0 1-.602-6.131 10.63 10.63 0 0 1 2.888-5.434 10.536 10.536 0 0 1 5.404-2.904 10.5 10.5 0 0 1 6.098.603 10.567 10.567 0 0 1 4.737 3.908 10.653 10.653 0 0 1-1.312 13.399 10.525 10.525 0 0 1-7.462 3.108ZM61.685 2.01c-2.8 2.128-2.313 5.39-2.313 5.39S57.612 2.808 55.327 0c-.308 3.614.818 8.402.818 8.402s-1.43-2.968-4.937-3.135c2.908 1.68 4.036 4.709 4.294 5.52a11.675 11.675 0 0 1 5.75-1.749c-.228-.756-1.044-3.942.433-7.029Zm1.903 11.239c-3.66.229-2.017 5.022 2.03 4.769 3.958-.247 1.87-5.013-2.03-4.769ZM1.194 25.787v-2.482h1.139c.714 0 1.26-.173 1.639-.52.378-.347.567-.822.567-1.427-.002-.609-.188-1.089-.557-1.44-.369-.35-.92-.525-1.653-.525H.167v6.393h1.027Zm1.995-5.258c.201.19.302.467.302.83 0 .736-.424 1.104-1.27 1.104H1.194v-2.218h1.027c.444-.001.767.094.968.284Zm4.004 2.704 1.585 2.553H9.94L8.27 23.188c.526-.087.928-.292 1.207-.615.28-.323.419-.733.419-1.231 0-.587-.187-1.058-.563-1.414-.376-.356-.927-.534-1.653-.534H5.436v6.393h1.027v-2.553h.73Zm.403-.734H6.463v-2.218h1.133c.427 0 .74.098.941.294.202.197.302.47.302.82 0 .736-.414 1.104-1.243 1.104Zm4.334 1.902h2.685l.485 1.386h1.1l-2.333-6.294h-1.18l-2.342 6.294h1.099l.486-1.386Zm1.342-3.784 1.054 2.988h-2.108l1.054-2.988Zm9.115.814a2.646 2.646 0 0 0-1-1.53c-.503-.375-1.134-.562-1.891-.562a3.191 3.191 0 0 0-1.635.412c-.467.27-.846.67-1.094 1.15a3.875 3.875 0 0 0 0 3.378c.249.482.63.883 1.099 1.155a3.18 3.18 0 0 0 1.64.416 3.086 3.086 0 0 0 1.472-.344 2.86 2.86 0 0 0 1.035-.92c.261-.383.432-.821.5-1.281v-.987h-3.197v.761h2.335c-.078.574-.307 1.025-.684 1.354a2 2 0 0 1-1.359.5c-.397.008-.79-.089-1.139-.28a1.882 1.882 0 0 1-.76-.8 2.72 2.72 0 0 1-.27-1.26 2.619 2.619 0 0 1 .26-1.218c.165-.33.421-.607.738-.796a2.05 2.05 0 0 1 1.068-.28c.396-.01.786.097 1.121.308.308.196.546.484.68.824h1.081Zm7.377 4.355v-6.293H28.52l-2.035 5.026-2.072-5.026h-1.242v6.294h1.026v-4.718l1.82 4.718h.9l1.81-4.718v4.718h1.037Zm2.345-1.385h2.68l.487 1.386h1.099l-2.334-6.294h-1.179l-2.342 6.294h1.103l.486-1.386Zm1.338-3.784 1.054 2.988h-2.108l1.054-2.988Zm7.323-.391v-.833h-4.575v.833h1.764v5.56h1.036v-5.56h1.775Zm.55 5.56h1.026v-6.393h-1.027v6.393Zm7.88-4.237a2.924 2.924 0 0 0-1.045-1.622c-.517-.398-1.165-.598-1.945-.598a3.04 3.04 0 0 0-1.594.416c-.46.275-.831.675-1.072 1.155a3.953 3.953 0 0 0 0 3.378c.24.479.612.878 1.072 1.15.484.28 1.035.423 1.594.413.78 0 1.43-.198 1.945-.594.522-.403.89-.973 1.045-1.616h-1.09c-.141.37-.391.687-.716.91a2.064 2.064 0 0 1-1.203.339 1.864 1.864 0 0 1-1.013-.28 1.936 1.936 0 0 1-.703-.802 3.002 3.002 0 0 1 0-2.427 1.94 1.94 0 0 1 .703-.801 1.864 1.864 0 0 1 1.014-.28c.425-.014.845.104 1.202.34.327.225.577.546.716.919h1.09Zm4.844 4.238v-2.482h1.14c.714 0 1.26-.173 1.638-.52.379-.347.568-.822.568-1.427-.002-.609-.187-1.089-.557-1.44-.37-.35-.922-.525-1.653-.525h-2.162v6.393h1.026Zm1.998-5.258c.202.19.302.467.302.83 0 .736-.424 1.104-1.273 1.104h-1.027v-2.218h1.03c.444-.001.767.094.968.284Zm5.307 4.452h-2.198v-5.588h-1.027v6.393h3.225v-.805Zm1.531.805.487-1.385h2.683l.487 1.386h1.1l-2.334-6.294h-1.18l-2.342 6.294h1.1Zm1.828-5.169 1.054 2.988h-2.108l1.054-2.988Zm4.934 2.842 2.116-4.066H70.59l-1.459 2.962-1.46-2.962h-1.19l2.126 4.066v2.328h1.034v-2.328Z" clip-rule="evenodd"/></svg>
